packages/icons/svg/Various_Apartment_24px.svg

<svg xmlns="http://www.w3.org/2000/svg" viewBox="0 0 24 24"><path d="M21 20h-2V5a1 1 0 00-1-1h-1V3a1 1 0 00-1-1H8a1 1 0 00-1 1v1H6a1 1 0 00-1 1v15H3a1 1 0 000 2h18a1 1 0 000-2zm-10.5 0v-4h3v4zm5 0v-5a1 1 0 00-1-1h-5a1 1 0 00-1 1v5H7V6h10v14z"/><path d="M14.5 10.5h-5a1 1 0 000 2h5a1 1 0 000-2zM14.5 7.5h-5a1 1 0 000 2h5a1 1 0 000-2z"/></svg>

<svg xmlns="http://www.w3.org/2000/svg" viewBox="0 0 24 24"><defs></defs><g id="Icon"><path  d="M21,20H19V5a1,1,0,0,0-1-1H17V3a1,1,0,0,0-1-1H8A1,1,0,0,0,7,3V4H6A1,1,0,0,0,5,5V20H3a1,1,0,0,0,0,2H21a1,1,0,0,0,0-2ZM10.5,20V16h3v4Zm5,0V15a1,1,0,0,0-1-1h-5a1,1,0,0,0-1,1v5H7V6H17V20Z"/><path  d="M14.5,10.5h-5a1,1,0,0,0,0,2h5a1,1,0,0,0,0-2Z"/><path  d="M14.5,7.5h-5a1,1,0,0,0,0,2h5a1,1,0,0,0,0-2Z"/></g></svg>
